X:1
T:Psalm 89
T:A minor        Simeon Jocelin, 1782
T:Transcribed from The Chorister's Companion, 1782.
T:Isaac Watts, 1719 (Psalm 89, Part 8)                        88. 88. 88.
%%score [ 1 2 3 4 ]
L:1/8
Q:1/4=150
M:3/2
K:C
V:1 treble nm="Tr." snm="Tr."
V:2 treble nm="C." snm="C."
V:3 treble-8 nm="T." snm="T."
V:4 bass nm="B." snm="B."
V:1
"_1. Think, mighty  God, on feeble man; How few his hours! how short  his   span!    Short from the cradle   to     the grave;   Who can se –" A4 | %1
 A8 (A2 Bc) | B8 c4 | A8 A4 | ^G8 G4 | A8 B4 | (c6 d2) e4 | c8 (B2 A2) | B8 z4 | ^G4 A4 B4 | %10
 A8 A4 | A8 ^G4 | A12 | z8 c4 | c8 B4 | %15
"_1. –cure  his  vital breath Against the  bold  demands  of  death,  With skill  to  fly, or  power   to   save?" c8 A4 | %16
 B8 A4 | ^G8 G4 | A8 (B2 A2) | B8 c4 | e8 (d2 c2) | B12 | B4 c4 e4 | c8 A4 | A8 ^G4 | A12 |] %26
V:2
"_2. Lord,  shall   it   be  for  ev – er  said,  The race of  man   was  on   –  ly   made    For  sickness, sorrow,    and    the  dust?     Are not thy \n3. Hast  thou  not promised to thy Son   And all  his seed    a      heavenly   crown?  But flesh and sense indulge    des –pair:     For  ev –er" E4 | %1
 E8 F4 | G8 E4 | F8 E4 | E8 E4 | E8 E4 | E8 G4 | E8 F4 | G8 z4 | E4 E4 ^G4 | (A4 E4) E4 | E8 E4 | %12
 E12 | z8 E4 | E8 E4 | %15
"_2. servants day  by   day Sent  to their  graves and turned to clay?  Lord where's thy kindness to the just?\n3. blessed  be  the  Lord, That faith can read his  ho  –  ly    word,  And  find  a  re –sur –rec –tion  there." E8 E4 | %16
 (G4 F4) E4 | E8 E4 | E8 G4 | G8 G4 | (E4 G4) A4 | G12 | G4 E4 C4 | E8 E4 | F8 E4 | E12 |] %26
V:3
"_4. For  ev  –  er    blessed  be the Lord, Who gives his saints a   long   re   –  ward      For all their  toil,  reproach,  and pain:     Let  all  be –" A4 | %1
 c8 A4 | e8 e4 | d8 c4 | B8 B4 | A8 ^G4 | A8 B4 | c8 d4 | e8 z4 | e4 c4 B4 | c8 A4 | c8 B4 | A12 | %13
 z8 E4 | A8 B4 | %15
"_4. –low  and  all  above  Join  to  pro –claim thy wondrous  love,  And  each  repeat  their  loud  A –men." A8 c4 | %16
 d8 c4 | B8 B4 | c8 d4 | e8 e4 | g8 f4 | e12 | e4 c4 (A2 ^G2) | A8 c4 | (d6 c2) B4 | A12 |] %26
V:4
 A,4 | A,8 F,4 | E,8 C,4 | D,8 A,,4 | E,8 E,4 | C,8 B,,4 | A,,8 E,4 | (A,6 G,2) F,4 | E,12 | %9
 E,4 A,4 ^G,4 | (A,6 B,2) C4 | (C,6 D,2) E,4 | A,,12 | z8 C,4 | C,8 E,4 | A,8 A,4 | G,8 A,4 | %17
 E,8 E,4 | A,8 (G,2 F,2) | E,8 C,4 | C,8 D,4 | E,12 | E,4 A,,4 E,4 | %23
 A,8"____________________________________________________________\nEdited by B. C. Johnston, 2018\n   1. Measure 10, \nCounter\n: last note changed from G to G#, as in \nBass\n.\n   2. Measure 23, Tenor: grace quarter note changed to normal quarter note." A,4 | %24
 D,8 E,4 | A,,12 |] %26

